images/addsectionimage/placeholder-with-question-mark-rtl.svg

<svg width="41" height="40" viewBox="0 0 41 40" fill="none" xmlns="http://www.w3.org/2000/svg">
<g opacity="0.8">
<path fill-rule="evenodd" clip-rule="evenodd" d="M35.427 15.7334H19.427C18.3224 15.7334 17.427 16.6288 17.427 17.7334V29.7334C17.427 30.838 18.3224 31.7334 19.427 31.7334H35.427C36.5316 31.7334 37.427 30.838 37.427 29.7334V17.7334C37.427 16.6288 36.5316 15.7334 35.427 15.7334ZM19.2573 28.7336L23.3473 23.4836L26.2673 26.9936L30.3473 21.7336L35.5973 28.7336H19.2573Z" fill="#AC6600"/>
<rect x="2.09375" y="2.6665" width="36" height="3.33333" rx="1.66667" fill="#AC6600"/>
<rect x="2.09375" y="8.6665" width="36" height="3.33333" rx="1.66667" fill="#AC6600"/>
<rect x="2.09375" y="35.3335" width="36" height="3.33333" rx="1.66667" fill="#AC6600"/>
<path fill-rule="evenodd" clip-rule="evenodd" d="M9.76177 30.6702C9.82444 29.6296 9.03243 28.7349 7.99177 28.6706H7.76177C6.73178 28.5962 5.83639 29.3705 5.76177 30.4002C5.75178 30.4899 5.75178 30.5805 5.76177 30.6702C5.68728 31.6999 6.46179 32.5951 7.49177 32.6697C7.58149 32.6797 7.67205 32.6797 7.76177 32.6697C8.79714 32.7382 9.69228 31.9552 9.76177 30.9201C9.77223 30.8371 9.77223 30.7531 9.76177 30.6702ZM7.70172 14.6741C4.76172 14.6741 2.76172 16.5636 2.76172 19.203C2.72259 20.8787 3.60051 22.4425 5.05172 23.282C6.47172 24.2017 6.87172 24.8116 6.87172 25.9913V26.6711H9.38172V25.8613C9.56899 24.2921 8.77522 22.7684 7.38172 22.0223C6.04172 21.1225 5.59172 20.4926 5.59172 19.3129C5.58102 18.7527 5.79479 18.2114 6.18545 17.8095C6.57611 17.4077 7.11124 17.1787 7.67172 17.1735H7.84172C8.45182 17.1519 9.04547 17.3737 9.49189 17.79C9.9383 18.2063 10.2009 18.7829 10.2217 19.3929V19.5629H12.7617C12.8632 16.969 10.8459 14.7823 8.25172 14.6741C8.06852 14.664 7.88491 14.664 7.70172 14.6741Z" fill="#AC6600"/>
</g>
</svg>

<svg xmlns="http://www.w3.org/2000/svg" width="41" height="40" fill="none" viewBox="0 0 41 40">
	<g fill="#AC6600" opacity=".8">
		<path fill-rule="evenodd" d="M35.427 15.733h-16a2 2 0 0 0-2 2v12a2 2 0 0 0 2 2h16a2 2 0 0 0 2-2v-12a2 2 0 0 0-2-2Zm-16.17 13 4.09-5.25 2.92 3.51 4.08-5.26 5.25 7h-16.34Z" clip-rule="evenodd"/>
		<rect width="36" height="3.333" x="2.094" y="2.667" rx="1.667"/>
		<rect width="36" height="3.333" x="2.094" y="8.666" rx="1.667"/>
		<rect width="36" height="3.333" x="2.094" y="35.334" rx="1.667"/>
		<path fill-rule="evenodd" d="M9.762 30.67a1.89 1.89 0 0 0-1.77-2h-.23a1.87 1.87 0 0 0-2 1.73c-.01.09-.01.18 0 .27a1.87 1.87 0 0 0 1.73 2c.09.01.18.01.27 0a1.88 1.88 0 0 0 2-1.75.999.999 0 0 0 0-.25Zm-2.06-15.996c-2.94 0-4.94 1.89-4.94 4.529a4.589 4.589 0 0 0 2.29 4.079c1.42.92 1.82 1.53 1.82 2.71v.68h2.51v-.81a3.839 3.839 0 0 0-2-3.84c-1.34-.9-1.79-1.53-1.79-2.71a2.1 2.1 0 0 1 2.08-2.139h.17a2.3 2.3 0 0 1 2.38 2.22v.17h2.54a4.71 4.71 0 0 0-4.51-4.889 4.996 4.996 0 0 0-.55 0Z" clip-rule="evenodd"/>
	</g>
</svg>
